resources/haticons/SVG/address-book.svg

<svg height="24" width="24" xmlns="http://www.w3.org/2000/svg"><path d="m4.5 0v24h18v-24zm9 6.008a2.992 2.992 0 1 1 0 5.984 2.992 2.992 0 0 1 0-5.984zm4.5 11.992h-9v-1.5a3 3 0 0 1 3-3h3a3 3 0 0 1 3 3zm-16.5-16.5h2.25v4.5h-2.25zm0 6h2.25v4.5h-2.25zm0 6h2.25v4.5h-2.25zm0 6h2.25v4.5h-2.25z"/></svg>

<svg height="24" width="24" xmlns="http://www.w3.org/2000/svg"><path d="M4.5 0v24h18V0zm9 6.008a2.992 2.992 0 1 1 0 5.984 2.992 2.992 0 0 1 0-5.984zM18 18H9v-1.5a3 3 0 0 1 3-3h3a3 3 0 0 1 3 3zM1.5 1.5h2.25V6H1.5zm0 6h2.25V12H1.5zm0 6h2.25V18H1.5zm0 6h2.25V24H1.5z"/></svg>
